apps/frontend/src/assets/icons/cog.svg

<svg width="24" height="24" viewBox="0 0 24 24" fill="none" xmlns="http://www.w3.org/2000/svg">
<path d="M12 15.5C11.0717 15.5 10.1815 15.1313 9.52513 14.4749C8.86876 13.8185 8.50001 12.9283 8.50001 12C8.50001 11.0717 8.86876 10.1815 9.52513 9.52513C10.1815 8.86875 11.0717 8.5 12 8.5C12.9283 8.5 13.8185 8.86875 14.4749 9.52513C15.1313 10.1815 15.5 11.0717 15.5 12C15.5 12.9283 15.1313 13.8185 14.4749 14.4749C13.8185 15.1313 12.9283 15.5 12 15.5ZM19.43 12.97C19.47 12.65 19.5 12.33 19.5 12C19.5 11.67 19.47 11.34 19.43 11L21.54 9.37C21.73 9.22 21.78 8.95 21.66 8.73L19.66 5.27C19.54 5.05 19.27 4.96 19.05 5.05L16.56 6.05C16.04 5.66 15.5 5.32 14.87 5.07L14.5 2.42C14.46 2.18 14.25 2 14 2H10C9.75001 2 9.54001 2.18 9.50001 2.42L9.13001 5.07C8.50001 5.32 7.96001 5.66 7.44001 6.05L4.95001 5.05C4.73001 4.96 4.46001 5.05 4.34001 5.27L2.34001 8.73C2.21001 8.95 2.27001 9.22 2.46001 9.37L4.57001 11C4.53001 11.34 4.50001 11.67 4.50001 12C4.50001 12.33 4.53001 12.65 4.57001 12.97L2.46001 14.63C2.27001 14.78 2.21001 15.05 2.34001 15.27L4.34001 18.73C4.46001 18.95 4.73001 19.03 4.95001 18.95L7.44001 17.94C7.96001 18.34 8.50001 18.68 9.13001 18.93L9.50001 21.58C9.54001 21.82 9.75001 22 10 22H14C14.25 22 14.46 21.82 14.5 21.58L14.87 18.93C15.5 18.67 16.04 18.34 16.56 17.94L19.05 18.95C19.27 19.03 19.54 18.95 19.66 18.73L21.66 15.27C21.78 15.05 21.73 14.78 21.54 14.63L19.43 12.97Z" fill="currentColor"/>
</svg>

<svg xmlns="http://www.w3.org/2000/svg" fill="none" viewBox="0 0 24 24"><path fill="currentColor" d="M12 15.5a3.5 3.5 0 1 1 0-7 3.5 3.5 0 0 1 0 7m7.43-2.53c.04-.32.07-.64.07-.97s-.03-.66-.07-1l2.11-1.63c.19-.15.24-.42.12-.64l-2-3.46c-.12-.22-.39-.31-.61-.22l-2.49 1c-.52-.39-1.06-.73-1.69-.98l-.37-2.65A.506.506 0 0 0 14 2h-4c-.25 0-.46.18-.5.42l-.37 2.65c-.63.25-1.17.59-1.69.98l-2.49-1c-.22-.09-.49 0-.61.22l-2 3.46c-.13.22-.07.49.12.64L4.57 11c-.04.34-.07.67-.07 1s.03.65.07.97l-2.11 1.66c-.19.15-.25.42-.12.64l2 3.46c.12.22.39.3.61.22l2.49-1.01c.52.4 1.06.74 1.69.99l.37 2.65c.04.24.25.42.5.42h4c.25 0 .46-.18.5-.42l.37-2.65c.63-.26 1.17-.59 1.69-.99l2.49 1.01c.22.08.49 0 .61-.22l2-3.46c.12-.22.07-.49-.12-.64z"/></svg>
